X: 27
T: Drovers Lads, The
R:Jig
S:MacDonald - Skye Collection
N:pg.176
M:6/8
L:1/8
K:G
B|GBd g3|agf (g2e)|dBB (B2e)|dBB (B2A)|GBd g3|agf (g2e)|dBA A2e|dBA A2:|
|:B|GBd dBd|ege dBG|dBB (B2e)|dBB (B2A)|GBd dBd|ege dBG|dBA (A2e)|dBA A2:|
|:B|GBB gBB|aBB bBB|dBB (B2e)|dBB (B2A)|GBB gBB|aBB bBB|dBA (A2e)|dBA A2:|
|:g|bag agf|gfe efg|dBB (B2e)|dBB (B2g)|bag agf|gfe efg|dBA (A2e)|dBA A2:|


